icons/message/message.svg

<svg width="14" height="14" viewBox="0 0 14 14" fill="none" xmlns="http://www.w3.org/2000/svg">
<path fill-rule="evenodd" clip-rule="evenodd" d="M3 2.5C2.44772 2.5 2 2.94772 2 3.5V8.5C2 9.05228 2.44772 9.5 3 9.5H8.58579C8.851 9.5 9.10536 9.60536 9.29289 9.79289L10.7929 11.2929C10.9255 11.4255 11.1054 11.5 11.2929 11.5V11.5C11.6834 11.5 12 11.1834 12 10.7929V8.5V6.5V3.5C12 2.94772 11.5523 2.5 11 2.5H3Z" stroke="red" stroke-linecap="round" stroke-linejoin="round"/>
</svg>

<svg xmlns="http://www.w3.org/2000/svg" width="14" height="14" fill="none" viewBox="0 0 14 14"><path stroke="red" stroke-linecap="round" stroke-linejoin="round" d="M3 2.5a1 1 0 0 0-1 1v5a1 1 0 0 0 1 1h5.586a1 1 0 0 1 .707.293l1.5 1.5a.7.7 0 0 0 .5.207v0c.39 0 .707-.317.707-.707V3.5a1 1 0 0 0-1-1z" clip-rule="evenodd"/></svg>
